X: 16134
T: Green Grow The Rushes
R: barndance
M: 4/4
K: Gmajor
|:"G"G3A BGGB|"Am"ABcd eAAB|"C"c2 ec "G"B2 dB|"Am"AcBA "Em"GE"G"DE|
"G"G3A BG G2|"Am"ABcd eA A2|"C"cdec "G"BcdB|"Am"AcBA "Em"GE"G" D2:|
|:"G"g3a gedg|"Am"eaab agef|"G"g3a "G"gedB|"Am"AcBA "Em"GE"G"DE|
"G"g3a ge d2|"Am"eaab agef|"G"fgga "G"gedB|"Am"AcBA "Em"GE"G" D2||

